X:1
T:Title
%%score 1 { ( 2 4 5 ) | ( 3 6 ) }
L:1/8
M:4/2
K:C
V:1 treble nm="Akkordion"
V:2 treble nm="Grand Piano"
V:4 treble 
V:5 treble 
V:3 treble 
V:6 treble 
V:1
 z8 z4 z2[Q:1/4=132] E2 | E3 D E2 F2 A2 G2 F2 E2 | D3 ^C D2 F2 A6 c2 | B3 F B2 A2 G2 D2 G2 F2 | %4
 E3 D E2 F2 G6 G2 | c3 c c2 B2 d2 c2 G2 E2 | D2 ^C2 D2 F2 A6 A2 | G2 A2 B2 c2 d2 A2 d2 A2 | %8
 c2 B2 A2 B2 c8 | [B,D]2 [CE]2 [DF]2 [EG]2 [FA]4 [FB]3 [FA] | [EG]2 [CE]2 [Fc]3 [FA] [EG]6 [EG]2 | %11
 [Ec] [Ec]3 [Ec]3 [DB] [Fd]2 [Ec]2 [EG]2 [CE]2 |[M:15/8] [EG] [EG]2- [EG] [DF]2- [DF][B,D]C- C6 |] %13
V:2
 z8 z4 z2 e2 | [Ece]3 [DBd] [Ece]2 [df]2 [Afa]2 [Geg]2 [Fdf]2 [Ece]2 | z8 [Adfa]8 | %3
 [Bdfb]3 [df] [Bdb]2 [fa]2 [Gdg]2 [Bd]2 [GBdg]2 [FBf]2 | z8 [Gceg]8 | %5
 [cgc']3 [cgc'] [cgc']2 [Bgb]2 [dgd']2 [cgc']2 [Gceg]2 [ce]2 | z8 [Adfa]8 | %7
 [Gdeg]2 [ea]2 [Begb]2 [gc']2 [d^fad']2 [fa]2 [dfac'f']2 [fa]2 | z8 [cegc']8 | %9
 [B,DB]2 [CEc]2 [DFd]2 [EGe]2 [Af]4 [FBf]3 [FAf] | z8 [ce]8 | %11
 [cegc'] [gc']3 [cegc']3 [gb] [dfgd']2 [gc']2 [Gceg]2 [ce]2 | %12
[M:15/8] [GBeg] [eg]2- [eg] [FBdf]2- [FBdf][FBd][CGc]- [CGc]6 |] %13
V:3
 z8 z4 z2 [Ec]2 | [C,,C,]4 [G,C]4 [C,,C,]4 [G,C]4 | %2
 z2 z[K:treble] [^CF] z2 [FA]2[K:bass] [D,,D,]4 z2[K:treble] [cfg]2 | %3
 z2 z [FB] z2 [Ad]2[K:bass] z2 [DG]2 [D,G,B,]4 | %4
 z2 z[K:treble] [DG] z2 [Fc]2[K:bass] [E,,E,]4 z2[K:treble] [Gce]2 | z8 z4 [E,G,C]4 | %6
 z2[K:treble] [^CF]2 z2 [FA]2[K:bass] [D,,D,]4 z2[K:treble] [Adf]2 | %7
 z2 [Ac]2 z2 [ce]2[K:bass] z2[K:treble] [Ad]2 z2 [Ad]2 | %8
 z2[K:treble] [Bd]2 z2 [Bd]2[K:bass] [C,,C,]4 [G,C]4 | %9
 [G,,,G,,]4 [D,G,B,]4 [G,B,F]4 (3z/ D,/- [D,B,]2- [D,B,]2 | z8 z4[K:treble] [G,C]4 | %11
 z[K:treble] [ce]3 z2 z [Be][K:bass] z2[K:treble] [ce]2 z2 [EG]2 | %12
[M:15/8][K:bass] z[K:treble] [GB]2- [GB][K:bass] [D,F,G,B,]2- [D,F,G,B,]2 [C,G,]- [C,G,]3 C,,3 |] %13
V:4
 x16 | x16 | [DFAd]3 [A^c] [DFAd]2 [df]2 z4 z2 c'2 | x16 | [EGce]3 [Bd] [EGce]2 [df]2 z4 z2 g2 | %5
 x16 | [DFAd]2 [A^c]2 [DFAd]2 [df]2 z4 z2 a2 | x16 | [cfgc']2 [fb]2 [Adfa]2 [fb]2 z4 E4 | x16 | %10
 [EGe]2 [Ec]2 [Fcf]3 [Fcf] E4 z2 g2 | x16 |[M:15/8] x15 |] %13
V:5
 x16 | x16 | z8 z4 D4 | x16 | z8 z4 E4 | x16 | z8 z4 F4 | x16 | x16 | x16 | z8 z4 E4 | x16 | %12
[M:15/8] x15 |] %13
V:6
 x16 | x16 | [F,,F,]4[K:treble] [D,F,A,]4[K:bass] z4 [F,A,]4[K:treble] | %3
 [G,,,G,,]4 [G,B,DF]4[K:bass] [B,,,B,,]4 z4 | %4
 [C,,C,]4[K:treble] [G,C]4[K:bass] z4 [G,C]4[K:treble] | [E,,E,]4 [G,CE]4 [E,,E,]4 z2 [EG]2 | %6
 [F,,,F,,]4[K:treble] [D,F,A,]4[K:bass] z4 [A,D]4[K:treble] | %7
 [G,,,G,,]4 [G,CE]4[K:bass] [D,,D,]4[K:treble] [D,^F,C]4 | %8
 [G,,,G,,]4[K:treble] [G,B,F]4[K:bass] z8 | z8 z4 G,,4 | %10
 [C,C]2 [C,G,C]2 [C,A,]3 [C,A,] [C,G,]4[K:treble] z2 [Ge]2 | %11
 [E,,E,]4[K:treble] [G,CE]4[K:bass] [E,,D,]4[K:treble] [E,G,C]4 | %12
[M:15/8][K:bass] .[G,,,G,,]6[K:treble][K:bass] z3 z6 |] %13

